X:0435
M:C
L:1/8
Q:1/4=76 "Slow"
K:G
    D| E2 c>A      TF2 D>F|G>ed>c     B3  \
    c|Td2 g>e       d2 g>e|d2 c>B     A3
    f| ge`d^c       d>edF |G>BAA      D3::\
    d| d>BG>F       E>FGe |e<AA>G ({G}F2)
    f| g2(d/e/f/d/) g2 dc |B>cdD      G3:|

